icons/pivot-table-16.svg

<svg width="16" height="16" viewBox="0 0 16 16" fill="none" xmlns="http://www.w3.org/2000/svg">
<path fill-rule="evenodd" clip-rule="evenodd" d="M0 1.75C0 0.783501 0.783502 0 1.75 0H14.25C15.2165 0 16 0.783502 16 1.75V7.25C16 7.66421 15.6642 8 15.25 8C14.8358 8 14.5 7.66421 14.5 7.25V6.5H6.5V14.5H7.25C7.66421 14.5 8 14.8358 8 15.25C8 15.6642 7.66421 16 7.25 16H1.75C0.783502 16 0 15.2165 0 14.25V1.75ZM6.5 5H14.5V1.75C14.5 1.61193 14.3881 1.5 14.25 1.5H6.5V5ZM5 5H1.5V1.75C1.5 1.61193 1.61193 1.5 1.75 1.5H5V5ZM1.5 6.5H5V14.5H1.75C1.61193 14.5 1.5 14.3881 1.5 14.25V6.5Z" fill="black"/>
<path d="M11.0174 9.89011L8.13479 12.5668C8.02827 12.6657 8.02827 12.8343 8.13479 12.9332L11.0174 15.6099C11.1773 15.7584 11.4375 15.645 11.4375 15.4267V13.5H12.5C14.433 13.5 16 11.933 16 10C16 9.58579 15.6642 9.25 15.25 9.25C14.8358 9.25 14.5 9.58579 14.5 10C14.5 11.1046 13.6046 12 12.5 12H11.4375V10.0733C11.4375 9.85502 11.1773 9.74158 11.0174 9.89011Z" fill="black"/>
</svg>

<svg xmlns="http://www.w3.org/2000/svg" width="16" height="16" viewBox="0 0 16 16"><path d="M0 1.75C0 .784.784 0 1.75 0h12.5C15.217 0 16 .784 16 1.75v5.5a.75.75 0 0 1-1.5 0V6.5h-8v8h.75a.75.75 0 0 1 0 1.5h-5.5A1.75 1.75 0 0 1 0 14.25ZM1.5 6.5v7.75c0 .138.112.25.25.25H5v-8Zm5-1.5h8V1.75a.25.25 0 0 0-.25-.25H6.5ZM5 5V1.5H1.75a.25.25 0 0 0-.25.25V5Z"/><path d="m11.017 9.89-2.882 2.677a.249.249 0 0 0 0 .366l2.882 2.677a.25.25 0 0 0 .421-.183V13.5H12.5A3.5 3.5 0 0 0 16 10a.75.75 0 0 0-1.5 0 2 2 0 0 1-2 2h-1.062v-1.927a.25.25 0 0 0-.421-.183Z"/></svg>
